dist/svgs/carbon-icons/svg/copy-glyph.svg

<svg xmlns="http://www.w3.org/2000/svg" viewBox="0 0 14 16"><path d="M10 4V0H0v12h4v4h10V4h-4zm-6 6H2V2h6v2H4v6zm8 4H6V6h6v8z"/><path d="M7 7h4v2H7zm0 3h4v2H7z"/></svg>

<svg width="14px" height="16px" viewBox="0 0 14 16" version="1.1" xmlns="http://www.w3.org/2000/svg" xmlns:xlink="http://www.w3.org/1999/xlink">
  <!-- Generator: Sketch 40.1 (33804) - http://www.bohemiancoding.com/sketch -->
  <desc>Created with Sketch.</desc>
  <defs></defs>
  <path d="M10,4 L10,0 L0,0 L0,12 L4,12 L4,16 L14,16 L14,4 L10,4 L10,4 Z M4,10 L2,10 L2,2 L8,2 L8,4 L4,4 L4,10 L4,10 Z M12,14 L6,14 L6,6 L12,6 L12,14 L12,14 Z" id="Shape" fill="#000000"></path>
  <rect id="Rectangle-path" fill="#000000" x="7" y="7" width="4" height="2"></rect>
  <rect id="Rectangle-path" fill="#000000" x="7" y="10" width="4" height="2"></rect>
</svg>
